!!!COM: Music21
!!!OTL: slide_Toormore--The
!!!OMV: slide_Toormore--The
**kern
*clefG2
*k[f#c#]
*b:
*M12/8
=1
4f#
8b
8bL
8a
8bJ
4dd
8ee
8ff#L
8aa
8ff#J
=
4ee
8ee
8eeL
8ff#
8eeJ
4cc#
8ee
4.aa
=
4f#
8b
8bL
8a
8bJ
4dd
8ee
8ff#L
8aa
8ff#J
=
4ee
8dd
4b
8a
4.b
4.b
!!linebreak:original
=||
*M12/8
4f#
8b
8bL
8a
8bJ
4dd
8ee
8ff#L
8aa
8ff#J
=
4ee
8ee
8eeL
8ff#
8eeJ
4cc#
8ee
4.aa
=
4f#
8b
8bL
8a
8bJ
4dd
8ee
8ff#L
8aa
8ff#J
=
4ee
8dd
4b
8a
4.b
4.b
=||
4.ff#
4.ee
4.dd
4.cc#
!!linebreak:original
=
8bL
8a
8bJ
8eeL
8dd
8bJ
4a
8f#
8eL
8d
8eJ
=
4f#
8b
8bL
8a
8bJ
4dd
8ee
8ff#L
8aa
8ff#J
=
4ee
8dd
4b
8a
4.b
4.b
=||
4.ff#
4.ee
4.dd
4.cc#
!!linebreak:original
=
8bL
8a
8bJ
8eeL
8dd
8bJ
4a
8f#
8eL
8d
8eJ
=
4f#
8b
8bL
8a
8bJ
4dd
8ee
8ff#L
8aa
8ff#J
=
4ee
8dd
4b
8a
4.b
4.b
=||
*-
